apps/i2021/public/icons/bocce.svg

<svg enable-background="new 0 0 512 512" viewBox="0 0 512 512" xmlns="http://www.w3.org/2000/svg"><path d="m437.019 74.981c-48.351-48.352-112.638-74.981-181.019-74.981s-132.668 26.629-181.019 74.981c-48.352 48.351-74.981 112.638-74.981 181.019s26.629 132.668 74.981 181.019c48.351 48.352 112.638 74.981 181.019 74.981s132.668-26.629 181.019-74.981c48.352-48.351 74.981-112.638 74.981-181.019s-26.629-132.668-74.981-181.019zm-401.298 181.019c0-50.596 17.158-97.255 45.945-134.486 51.332 24.432 85.031 76.963 85.031 134.486s-33.699 110.054-85.03 134.488c-28.788-37.232-45.946-83.891-45.946-134.488zm220.279 220.279c-57.555 0-110.016-22.198-149.298-58.469 24.495-13.437 45.642-32.279 62.012-55.459 22.049-31.227 33.705-68.002 33.705-106.351 0-38.348-11.655-75.122-33.704-106.347-16.37-23.182-37.518-42.022-62.014-55.461 39.282-36.272 91.743-58.47 149.299-58.47s110.017 22.197 149.298 58.468c-24.495 13.437-45.643 32.279-62.011 55.46-22.051 31.226-33.705 68.001-33.705 106.35 0 38.35 11.656 75.126 33.707 106.352 16.37 23.18 37.515 42.02 62.009 55.457-39.281 36.272-91.742 58.47-149.298 58.47zm174.332-85.792c-51.331-24.432-85.03-76.963-85.03-134.487 0-57.523 33.699-110.054 85.03-134.486 28.789 37.23 45.947 83.888 45.947 134.486s-17.158 97.256-45.947 134.487z"/></svg>

<svg viewBox="0 0 512 512" xmlns="http://www.w3.org/2000/svg"><path d="M437.019 74.981C388.668 26.629 324.381 0 256 0S123.332 26.629 74.981 74.981C26.629 123.332 0 187.619 0 256s26.629 132.668 74.981 181.019C123.332 485.371 187.619 512 256 512s132.668-26.629 181.019-74.981C485.371 388.668 512 324.381 512 256s-26.629-132.668-74.981-181.019zM35.721 256c0-50.596 17.158-97.255 45.945-134.486 51.332 24.432 85.031 76.963 85.031 134.486s-33.699 110.054-85.03 134.488C52.879 353.256 35.721 306.597 35.721 256zM256 476.279c-57.555 0-110.016-22.198-149.298-58.469 24.495-13.437 45.642-32.279 62.012-55.459 22.049-31.227 33.705-68.002 33.705-106.351 0-38.348-11.655-75.122-33.704-106.347-16.37-23.182-37.518-42.022-62.014-55.461C145.983 57.92 198.444 35.722 256 35.722S366.017 57.919 405.298 94.19c-24.495 13.437-45.643 32.279-62.011 55.46-22.051 31.226-33.705 68.001-33.705 106.35 0 38.35 11.656 75.126 33.707 106.352 16.37 23.18 37.515 42.02 62.009 55.457-39.281 36.272-91.742 58.47-149.298 58.47zm174.332-85.792c-51.331-24.432-85.03-76.963-85.03-134.487 0-57.523 33.699-110.054 85.03-134.486 28.789 37.23 45.947 83.888 45.947 134.486s-17.158 97.256-45.947 134.487z"/></svg>
